!!!COM: Buxtehude, Dietrich
!!!CDT: ~1637///-1707/05/09/
!!!ODT: ~1694///
!!!OTL: Sonata in F Major, Op. 1, No. 1
!!!OPS: Op. 1
!!!ONM: No. 1
!!!SCA: BuxWV 252
!!!OMD: 2. Allegro
!!!URL: http://www.lysator.liu.se/~tuben/scores
!!!ONB: Johan Tufvessons, ed.
!!!SMA: facsmile of the original edition at Uppsala University
**kern	**kern	**kern
*staff3	*staff2	*staff1
*Icemba	*Iviola	*Ivioln
*clefF4	*clefC3	*clefG2
*k[b-]	*k[b-]	*k[b-]
*met(C)	*met(C)	*met(C)
*M4/4	*M4/4	*M4/4
*MM112	*MM112	*MM112
=34-	=34-	=34-
1r	1r	8r
.	.	8f/L
.	.	8.cc/
.	.	16cc/Jk
.	.	8dd\L
.	.	16cc\L
.	.	16b-\JJ
.	.	16a\LL
.	.	16cc\
.	.	16bn\
.	.	16dd\JJ
=35	=35	=35
1r	1r	16cc\LL
.	.	16cc\
.	.	16b-\
.	.	16a\JJ
.	.	16g/LL
.	.	16b-/
.	.	16a/
.	.	16cc/JJ
.	.	16b-/LL
.	.	16b-/
.	.	16a/
.	.	16g/JJ
.	.	16f/LL
.	.	16a/
.	.	16g/
.	.	16b-/JJ
=36	=36	=36
1r	1r	16a/LL
.	.	16b-/
.	.	16a/
.	.	16f/JJ
.	.	16cc/LL
.	.	16bn/
.	.	16cc/
.	.	16e/JJ
.	.	16f/LL
.	.	16g/
.	.	16f/
.	.	16e/JJ
.	.	16f/LL
.	.	16e/
.	.	16d/
.	.	16e/JJ
=37	=37	=37
1r	8r	16c/LL
.	.	16cc/
.	8c\L	16cc/
.	.	16cc/JJ
.	8.f\	16a\LL
.	.	16a\
.	.	16dd\
.	16f\Jk	16dd\JJ
.	8a\L	[4cc\
.	16g\L	.
.	16f\JJ	.
.	16e\LL	16cc\LL]
.	16g\	16b-\
.	16f#\	16a\
.	16a\JJ	16cc\JJ
=38	=38	=38
1r	16g\LL	[4b-\
.	16g\	.
.	16f\	.
.	16e\JJ	.
.	16d\LL	16b-/LL]
.	16f\	16a/
.	16e\	16g/
.	16g\JJ	16b-/JJ
.	16f\LL	[4a/
.	16f\	.
.	16e\	.
.	16d\JJ	.
.	16c\LL	16a/LL]
.	16e\	16g/
.	16d\	16f/
.	16f\JJ	16a/JJ
=39	=39	=39
1r	16e\LL	8.f/L
.	16f\	.
.	16e\	.
.	16c\JJ	16cc/Jk
.	16f\LL	8.a\L
.	16e\	.
.	16f\	.
.	16A\JJ	16ff\Jk
.	16B-/LL	16dd\LL
.	16c/	16ee-\
.	16B-/	16dd\
.	16A/JJ	16cc\JJ
.	16B-/LL	16dd\LL
.	16A/	16cc\
.	16G/	16b-\
.	16A/JJ	16cc\JJ
=40	=40	=40
8r	16G\LL	16a/LL
.	16f\	16a/
8F\L	16f\	16a/
.	16f\JJ	16a/JJ
8.c\	16e\LL	16g/LL
.	16e\	16g/
.	16g\	16cc/
16c\Jk	16g\JJ	16cc/JJ
8d\L	[4f\	16a/LL
.	.	16a/
16c\L	.	16a/
16B-\JJ	.	16b-/JJ
8A\L	16f\LL]	8cc\L
.	16e-\	.
8Bn\J	16d\	8dd\J
.	16f\JJ	.
=41	=41	=41
8c\L	[4e\	16r
.	.	16g/LL
16B-\L	.	16g/
16A\JJ	.	16a/JJ
8G\L	16e\LL]	8b-\L
.	16d\	.
8A\J	16c\	8cc\J
.	16e-\JJ	.
8B-\L	[4d\	16r
.	.	16f/LL
16A\L	.	16f/
16G\JJ	.	16g/JJ
8F\L	16d\LL]	8a/L
.	16c\	.
8G\J	16B-\	8b-/J
.	16d\JJ	.
=42	=42	=42
16A\LL	8.c\L	16cc\LL
16B-\	.	16dd\
16A\	.	16cc\
16F\JJ	16f\Jk	16a\JJ
16c\LL	8.e\L	8.g/L
16Bn\	.	.
16c\	.	.
16E\JJ	16g\Jk	16cc/Jk
16F\LL	16a\LL	8cc\L
16G\	16b-\	.
16F\	16a\	8cc\
16E\JJ	16g\JJ	.
16F\LL	16a\LL	8.cc\
16E\	16g\	.
16D\	16f\	.
16E\JJ	16g\JJ	16bn\Jk
=43	=43	=43
16C\LL	16e\LL	4cc\
16c\	16e\	.
16c\	16e\	.
16c\JJ	16e\JJ	.
16A\LL	16c\LL	4r
16A\	16c\	.
16d\	16f\	.
16d\JJ	16f\JJ	.
[4c\	16e\LL	4r
.	16e\	.
.	16e\	.
.	16f\JJ	.
16c\LL]	8g\L	8r
16B-\	.	.
16A\	8a\J	16ff\LL
16c\JJ	.	16ee-\JJ
=44	=44	=44
[4B-\	16r	[4dd\
.	16d\LL	.
.	16d\	.
.	16e\JJ	.
16B-\LL]	8f\L	16dd\LL]
16A\	.	16cc\
16G\	8g\J	16b-\
16B-\JJ	.	16dd\JJ
[4A\	16r	[4cc\
.	16c\LL	.
.	16c\	.
.	16d\JJ	.
16A\LL]	8e\L	16cc\LL]
16G\	.	16b-\
16F\	[8f\J	16a\
16A\JJ	.	16cc\JJ
=45	=45	=45
4G\	16f\LL]	[4b-\
.	16f\	.
.	16g\	.
.	16f\JJ	.
4c\	8.e\L	16b-/LL]
.	.	16a/
.	.	16g/
.	16e\Jk	16b-/JJ
4.F\	8f/L	8a\L
.	8F/J	16aa\L
.	.	16bb-\JJ
.	4r	16aa\LL
.	.	16gg\
8F\	.	16ff\
.	.	16gg\JJ
*	*clefF4	*
=46	=46	=46
8c\L	16r	8ee\L
.	16c\LL	.
8A\	16c\	8cc\
.	16c\JJ	.
8F\	16A\LL	8.ff\
.	16A\	.
8B-\J	16d\	.
.	16d\JJ	16ff\Jk
8A\L	[4c\	8aa\L
8B-\	.	16gg\L
.	.	16ff\JJ
8c\	16c\LL]	16ee\LL
.	16B-\	16gg\
8A\J	16A\	16ff#\
.	16c\JJ	16aa\JJ
=47	=47	=47
8B-\	[4B-\	16gg\LL
.	.	16gg\
8r	.	16ff\
.	.	16ee\JJ
8r	16B-\LL]	16dd\LL
.	16A\	16ff\
8G\	16G\	16ee\
.	16B-\JJ	16gg\JJ
8A\	[4A\	16ff\LL
.	.	16ff\
8r	.	16ee\
.	.	16dd\JJ
8r	16A\LL]	16cc\LL
.	16c\	16ee\
8Bn\	16Bn\	16dd\
.	16d\JJ	16ff\JJ
=48	=48	=48
8.c\L	8.c\L	16ee\LL
.	.	16ff\
.	.	16ee\
16A\Jk	16A\Jk	16cc\JJ
8.d\L	8.d\L	16ff\LL
.	.	16ee\
.	.	16ff\
16F\Jk	16F\Jk	16a\JJ
8G\L	8.G\L	16b-\LL
.	.	16cc\
8BB-\J	.	16b-\
.	16BB-\Jk	16a\JJ
8.C/L	4C/	16b-/LL
.	.	16a/
.	.	16g/
16CC/Jk	.	16a/JJ
=49	=49	=49
4FF/	8r	16f\LL
.	.	16ff\
.	8F\L	16ff\
.	.	16ff\JJ
4r	8.c\	16ee\LL
.	.	16ee\
.	.	16aa\
.	16c\Jk	16aa\JJ
2r	8d\L	[4ff\
.	16c\L	.
.	16B-\JJ	.
.	16A\LL	16ff\LL]
.	16c\	16ee-\
.	16Bn\	16dd\
.	16d\JJ	16ff\JJ
=50	=50	=50
16r	16c\LL	[4ee-\
16C/LL	16c\	.
16C/	16B-\	.
16D/JJ	16A\JJ	.
8E-\L	16G\LL	16ee-\LL]
.	16B-\	16dd\
8F\J	16A\	16cc\
.	16c\JJ	16ee-\JJ
16BB-\LL	16B-\LL	[4dd\
16B-\	16B-\	.
16A\	16A\	.
16G\JJ	16G\JJ	.
8F\L	16F\LL	16dd\LL]
.	16A\	16cc\
8G\J	16G\	16b-\
.	16B-\JJ	16dd\JJ
=51	=51	=51
8.A\L	16A\LL	8.cc\L
.	16B-\	.
.	16A\	.
16F\Jk	16F\JJ	16ff\Jk
8.c\L	16c\LL	8.ee\L
.	16Bn\	.
.	16c\	.
16E\Jk	16E\JJ	16gg\Jk
8.F\L	16F\LL	16aa\LL
.	16G\	16bb-\
.	16F\	16aa\
16E\Jk	16E\JJ	16gg\JJ
8F\L	16F\LL	16aa\LL
.	16E\	16gg\
8D\J	16D\	16ff\
.	16E\JJ	16gg\JJ
=52	=52	=52
8r	16C\LL	16ee\LL
.	16c\	16ee\
8C\L	16c\	16ee\
.	16c\JJ	16ee\JJ
8.F\	16A\LL	16cc\LL
.	16A\	16cc\
.	16d\	16ff\
16F\Jk	16d\JJ	16ff\JJ
8A\L	[4c\	16ee\LL
.	.	16ee\
16G\L	.	16ee\
16F\JJ	.	16ff\JJ
8E\L	16c\LL]	8gg\L
.	16B-\	.
8F#\J	16A\	8aa\J
.	16c\JJ	.
=53	=53	=53
8G\L	[4B-\	16r
.	.	16dd\LL
16F\L	.	16dd\
16E\JJ	.	16ee\JJ
8D\L	16B-\LL]	8ff\L
.	16A\	.
8E\J	16G\	8gg\J
.	16B-\JJ	.
8F\L	[4A\	16r
.	.	16cc\LL
16E\L	.	16cc\
16D\JJ	.	16dd\JJ
8C/L	16A\LL]	8ee\L
.	16G\	.
8D/J	16F\	8ff\J
.	16A\JJ	.
=54	=54	=54
16E\LL	8.G\L	16gg\LL
16D\	.	16ff\
16E\	.	16gg\
16C\JJ	16c\Jk	16ee\JJ
16F\LL	8.A\L	8.aa\L
16E\	.	.
16F\	.	.
16AA\JJ	16c\Jk	16aa\Jk
16BB-/LL	16d\LL	8gg\L
16C/	16e-\	.
16BB-/	16d\	16gg\L
16AA/JJ	16c\JJ	16ff\JJ
16BB-/LL	16d\LL	8.ff\L
16AA/	16c\	.
16GG/	16B-\	.
16AA/JJ	16c\JJ	16ee\Jk
=55	=55	=55
8FF/L	16A\LL	4ff\
.	16G\	.
8F/	16F\	.
.	16E\JJ	.
8.D/	16D\LL	4r
.	16E\	.
.	16D\	.
16C/Jk	16C\JJ	.
4BBn/	16BBn/LL	16r
.	16D/	16ff\LL
.	16C/	16ee\
.	16BB/JJ	16dd\JJ
8C/L	16C/LL	16ee\LL
.	16BB/	16dd\
8AA/J	16AA/	16cc\
.	16BB/JJ	16dd\JJ
=56	=56	=56
8GG\L	8.GG/L	8bn\L
8G\	.	16ee\L
.	16G/Jk	16bn\JJ
8A\	16A\LL	16cc\LL
.	16c\	16ee\
8Bn\J	16Bn\	16dd\
.	16d\JJ	16ff\JJ
8c\L	16c\LL	8ee\L
.	16B\	.
8C\	16c\	16aa\L
.	16C\JJ	16ee\JJ
8D\	16D\LL	16ff\LL
.	16F\	16aa\
8E\J	16E\	16gg\
.	16G\JJ	16bb-\JJ
=57	=57	=57
8.F\L	16F\LL	[4aa\
.	16G\	.
.	16F\	.
16E\Jk	16E\JJ	.
4D\	8.F\L	16aa\LL]
.	.	16bb-\
.	.	16aa\
.	16D\Jk	16ff\JJ
8.E\L	16E\LL	[4gg\
.	16F\	.
.	16E\	.
16D\Jk	16D\JJ	.
4C/	8.E\L	16gg\LL]
.	.	16aa\
.	.	16gg\
.	16C\Jk	16ee\JJ
=58	=58	=58
8.D/L	16D\LL	[4ff\
.	16E\	.
.	16D\	.
16C/Jk	16C\JJ	.
4BBn/	8.D/L	16ff\LL]
.	.	16gg\
.	.	16ff\
.	16BBn/Jk	16dd\JJ
8C/L	8C/L	8ee\L
8FF#/J	8FF#/J	8aa\
4GG/	4GG/	8.dd\
.	.	16cc\Jk
=59	=59	=59
4C/	16C\LL	4cc\
.	16E\	.
.	16C\	.
.	16E\JJ	.
4BBn/	16D\LL	4r
.	16F\	.
.	16D\	.
.	16F\JJ	.
4C/	16E\LL	2r
.	16G\	.
.	16E\	.
.	16C\JJ	.
8AA/L	16AA/LL	.
.	16BB-/	.
8GG/J	16GG/	.
.	16AA/JJ	.
=60	=60	=60
4.FF#/	4FF#/	8r
.	.	16a\LL
.	.	16cc\JJ
.	16FF#/LL	16a\LL
.	16AA/	16cc\
8FF#/	16FF#/	16a\
.	16AA/JJ	16cc\JJ
4GG/	4GG/	8b-\L
.	.	16b-\L
.	.	16dd\JJ
8.G\L	16G\LL	16b-\LL
.	16B-\	16dd\
.	16G\	16b-\
16B-\Jk	16B-\JJ	16dd\JJ
=61	=61	=61
4E-\	4E-\	8g\L
.	.	16gg\L
.	.	16bb-\JJ
8.E-\L	16E-\LL	16gg\LL
.	16G\	16bb-\
.	16E-\	16gg\
16G\Jk	16G\JJ	16bb-\JJ
4D\	4D\	16ff#\LL
.	.	16a\
.	.	16b-\
.	.	16a\JJ
4E-\	16r	16gg\LL
.	16E-\LL	16g\
.	16G\	16b-\
.	16E-\JJ	16g\JJ
=62	=62	=62
4BB-/	8.B-\L	8dd\L
.	.	16d\L
.	16BB-\Jk	16gg\JJ
4C/	16C\LL	16ee-\LL
.	16E-\	16gg\
.	16C\	16a\
.	16E-\JJ	16cc\JJ
8D\L	8D\L	8f#/L
8E-\	8E-\	16g/L
.	.	16a/JJ
8C\	8C\	8b-/L
8D\J	8D\J	16a/L
.	.	16g/JJ
=63	=63	=63
8.GG/L	4GG/	16g/LL
.	.	16a/
.	.	16b-/
16AA/Jk	.	16cc/JJ
8.BB-/L	4r	16dd\LL
.	.	16ee-\
.	.	16ff\
16GG/Jk	.	16gg\JJ
*	*clefC3	*
4D\	16D/LL	4ff\
.	16E/	.
.	16F/	.
.	16G/JJ	.
8.C/L	16A/LL	4r
.	16B-/	.
.	16c/	.
16BB-/Jk	16d/JJ	.
=64	=64	=64
4AA/	16c\LL	16r
.	16d\	16ff\LL
.	16c\	16ee-\
.	16B-\JJ	16dd\JJ
8r	16A/LL	16cc\LL
.	16B-/	16dd\
8AA/	16c/	16ee-\
.	16d/JJ	16ff\JJ
4BB-/	16B-/LL	16dd\LL
.	16c/	16ee-\
.	16B-/	16dd\
.	16A/JJ	16cc\JJ
8E-/L	[4G/	16b-\LL
.	.	16cc\
8BB-/J	.	16dd\
.	.	16ee-\JJ
=65	=65	=65
4AA/	8G/L]	16cc\LL
.	.	16dd\
.	16A/L	16cc\
.	16G/JJ	16b-\JJ
8D/L	4.F/	16a\LL
.	.	16b-\
8AA/J	.	16cc\
.	.	16dd\JJ
4GG/	.	16b-\LL
.	.	16cc\
.	16G/LL	16b-\
.	16F/JJ	16a\JJ
4C/	8.E/L	16g/LL
.	.	16a/
.	.	16b-/
.	16E/Jk	16cc/JJ
=66	=66	=66
4FF/	16F\LL	8a/L
.	16f\	.
.	16f\	8f/
.	16f\JJ	.
8r	16e\LL	8.cc/
.	16e\	.
8F\	16a\	.
.	16a\JJ	16cc/Jk
4.D\	[4f\	8dd\L
.	.	16cc\L
.	.	16b-\JJ
.	16f\LL]	16a\LL
.	16e-\	16cc\
8G\	16d\	16bn\
.	16f\JJ	16dd\JJ
=67	=67	=67
4.C/	[4e-\	16cc\LL
.	.	16cc\
.	.	16b-\
.	.	16a\JJ
.	16e-\LL]	16g/LL
.	16d\	16b-/
8F\	16c\	16a/
.	16e-\JJ	16cc/JJ
4.BB-/	[4d\	16b-/LL
.	.	16b-/
.	.	16a/
.	.	16g/JJ
.	16d\LL]	16f/LL
.	16c\	16a/
8BB-/	16B-\	16g/
.	16d\JJ	16b-/JJ
=68	=68	=68
4F\	8.c/L	16a/LL
.	.	16b-/
.	.	16a/
.	16A/Jk	16f/JJ
4E\	8.G/L	16cc/LL
.	.	16bn/
.	.	16cc/
.	16c/Jk	16e/JJ
4.D\	8c/L	16f/LL
.	.	16g/
.	8c/	16f/
.	.	16e/JJ
.	8.c/	16f/LL
.	.	16e/
8G\	.	16d/
.	16Bn/Jk	16e/JJ
=69	=69	=69
8.E\L	8c\L	16c/LL
.	.	16cc/
*	*clefF4	*
.	8C\	16cc/
16C\Jk	.	16cc/JJ
4F\	8.F\	16a\LL
.	.	16a\
.	.	16dd\
.	16F\Jk	16dd\JJ
8A\L	8A\L	[4cc\
16G\L	16G\L	.
16F\JJ	16F\JJ	.
8E\L	16E\LL	16cc\LL]
.	16G\	16b-\
8F#\J	16F#\	16a\
.	16A\JJ	16cc\JJ
=70	=70	=70
8G\L	16G\LL	[4b-\
.	16G\	.
16F\L	16F\	.
16E\JJ	16E\JJ	.
8D\L	16D\LL	16b-/LL]
.	16F\	16a/
8E\J	16E\	16g/
.	16G\JJ	16b-/JJ
8F\L	16F\LL	[4a/
.	16F\	.
16E\L	16E\	.
16D\JJ	16D\JJ	.
8C/L	16C\LL	16a/LL]
.	16E\	16g/
8D/J	16D\	16f/
.	16F\JJ	16a/JJ
=71	=71	=71
8.E\L	16E\LL	16g/LL
.	16F\	16a/
.	16E\	16g/
16C\Jk	16C\JJ	16e/JJ
8.F/L	16F\LL	16a/LL
.	16E\	16g/
.	16F\	16a/
16AA/Jk	16AA\JJ	16c/JJ
8.BB-/L	16BB-/LL	16d/LL
.	16C/	16e-/
.	16BB-/	16d/
16AA/Jk	16AA/JJ	16c/JJ
8.BB-/L	16BB-/LL	8.d/L
.	16AA/	.
.	16BB-/	.
16GG/Jk	16GG/JJ	16g/Jk
=72	=72	=72
8.D/L	16D\LL	16f/LL
.	16E-\	16g/
.	16D\	16f/
16C/Jk	16C\JJ	16e-/JJ
8.D/L	16D/LL	8.f/L
.	16C/	.
.	16D/	.
16BB-/Jk	16BB-/JJ	16b-/Jk
8.F\L	16F\LL	16a/LL
.	16G\	16b-/
.	16F\	16a/
16E\Jk	16E-\JJ	16g/JJ
8.F\L	16F\LL	8.a\L
.	16E-\	.
.	16F\	.
16D\Jk	16D\JJ	16dd\Jk
=73	=73	=73
8.A\L	16A\LL	16cc\LL
.	16B-\	16dd\
.	16A\	16cc\
16G\Jk	16G\JJ	16b-\JJ
8.A\L	16A\LL	8cc\L
.	16G\	.
.	16A\	[8ff\J
16F\Jk	16F\JJ	.
4c\	4c\	8ff\L]
.	.	16ee\L
.	.	16dd\JJ
4r	4r	16ee\LL
.	.	16a\J
.	.	8aa\J
==	==	==
*-	*-	*-
!!!ENC: Craig Stuart Sapp
!!!END: 2004/12/15/
